newicons/lazada_seller_center.svg

<?xml version="1.0" encoding="UTF-8"?><svg id="a" xmlns="http://www.w3.org/2000/svg" viewBox="0 0 48 48"><defs><style>.b{fill:none;stroke:#fff;stroke-linecap:round;stroke-linejoin:round;}</style></defs><path class="b" d="M23.9995,31.6798v-15.361M20.0645,28.7978c.775.981,1.746,1.346,3.098,1.346h1.87c1.741,0,3.152-1.375,3.152-3.072h0c0-1.697-1.41-3.072-3.152-3.072h-2.066c-1.741,0-3.152-1.375-3.152-3.072h0c0-1.697,1.41-3.072,3.152-3.072h1.87c1.352,0,2.323.365,3.098,1.346M24.0605,34.1628v7.591M43.5005,11.5438v19.271l-18.536,10.701c-.56.3233-1.25.3233-1.81,0L4.4995,30.7448V11.4738M30.9475,18.7918l12.552-7.247-9.118-5.266h0l-6.426,3.71c-2.183,1.26-5.732,1.254-7.929-.014l-6.466-3.733-9.061,5.232,12.553,7.247"/></svg>

<svg xmlns="http://www.w3.org/2000/svg" xml:space="preserve" viewBox="0 0 48 48"><path fill="none" stroke="#fff" stroke-linecap="round" stroke-linejoin="round" d="M24 31.681V16.32m-3.935 12.479c.775.981 1.746 1.346 3.098 1.346h1.87c1.741 0 3.152-1.375 3.152-3.072v0c0-1.697-1.41-3.072-3.152-3.072h-2.066c-1.741 0-3.152-1.375-3.152-3.072v0c0-1.697 1.41-3.072 3.152-3.072h1.87c1.352 0 2.323.365 3.098 1.346m-3.874 14.961v7.591m19.44-30.21v19.271L24.965 41.517a1.81 1.81 0 0 1-1.81 0L4.5 30.746V11.475m26.448 7.318L43.5 11.546 34.382 6.28h0v0l-6.426 3.71c-2.183 1.26-5.732 1.254-7.929-.014l-6.466-3.733L4.5 11.475l12.553 7.247" class="t"/></svg>
